DSC06805.xmp
<x:xmpmeta xmlns:x="adobe:ns:meta/" x:xmptk="Adobe XMP Core 5.6-c011 79.156380, 2014/05/21-23:38:37        ">
 <rdf:RDF xmlns:rdf="http://www.w3.org/1999/02/22-rdf-syntax-ns#">
  <rdf:Description rdf:about=""
    xmlns:tiff="http://ns.adobe.com/tiff/1.0/"
    xmlns:exif="http://ns.adobe.com/exif/1.0/"
    xmlns:xmp="http://ns.adobe.com/xap/1.0/"
    xmlns:aux="http://ns.adobe.com/exif/1.0/aux/"
    xmlns:photoshop="http://ns.adobe.com/photoshop/1.0/"
    xmlns:xmpMM="http://ns.adobe.com/xap/1.0/mm/"
    xmlns:stEvt="http://ns.adobe.com/xap/1.0/sType/ResourceEvent#"
    xmlns:dc="http://purl.org/dc/elements/1.1/"
    xmlns:crs="http://ns.adobe.com/camera-raw-settings/1.0/"
    xmlns:lr="http://ns.adobe.com/lightroom/1.0/"
   tiff:Make="SONY"
   tiff:Model="SLT-A65V"
   tiff:Orientation="1"
   tiff:ImageWidth="6000"
   tiff:ImageLength="4000"
   exif:ExifVersion="0230"
   exif:ExposureTime="1/30"
   exif:ShutterSpeedValue="4906891/1000000"
   exif:FNumber="35/10"
   exif:ApertureValue="361471/100000"
   exif:ExposureProgram="3"
   exif:SensitivityType="2"
   exif:RecommendedExposureIndex="800"
   exif:BrightnessValue="1764/2560"
   exif:ExposureBiasValue="0/10"
   exif:MaxApertureValue="392/256"
   exif:MeteringMode="5"
   exif:LightSource="0"
   exif:FocalLength="500/10"
   exif:FileSource="3"
   exif:SceneType="1"
   exif:FocalLengthIn35mmFilm="75"
   exif:CustomRendered="0"
   exif:ExposureMode="0"
   exif:WhiteBalance="0"
   exif:SceneCaptureType="0"
   exif:Contrast="0"
   exif:Saturation="0"
   exif:Sharpness="0"
   exif:FocalPlaneXResolution="83662979/32768"
   exif:FocalPlaneYResolution="83662979/32768"
   exif:FocalPlaneResolutionUnit="3"
   exif:GPSVersionID="2.3.0.0"
   exif:GPSLatitude="51,10.7599N"
   exif:GPSLongitude="16,59.9684E"
   exif:GPSAltitudeRef="0"
   exif:GPSAltitude="12540/100"
   exif:GPSTimeStamp="2016-08-16T18:26:03Z"
   exif:GPSStatus="A"
   exif:GPSMeasureMode="3"
   exif:GPSDOP="43992/10000"
   exif:GPSSpeedRef="K"
   exif:GPSSpeed="2824/1000"
   exif:GPSTrackRef="T"
   exif:GPSTrack="34160/100"
   exif:GPSMapDatum="WGS-84"
   exif:GPSDifferential="0"
   exif:DateTimeOriginal="2016-08-16T19:26:02"
   exif:PixelXDimension="6000"
   exif:PixelYDimension="4000"
   xmp:CreatorTool="SLT-A65V v1.04"
   xmp:ModifyDate="2016-08-16T19:26:02"
   xmp:CreateDate="2016-08-16T19:26:02"
   xmp:Label="Red"
   xmp:MetadataDate="2016-08-28T17:23:13+02:00"
   xmp:Rating="3"
   aux:LensInfo="50/1 50/1 17/10 17/10"
   aux:Lens="50mm F1.7"
   aux:LensID="25501"
   photoshop:DateCreated="2016-08-16T19:26:02"
   photoshop:SidecarForExtension="ARW"
   photoshop:EmbeddedXMPDigest="00000000000000000000000000000000"
   xmpMM:DocumentID="CD220BF37C28FC92754E7934AA027CB0"
   xmpMM:OriginalDocumentID="CD220BF37C28FC92754E7934AA027CB0"
   xmpMM:InstanceID="xmp.iid:ced8f1ca-7fd0-5245-be48-329193b682c7"
   dc:format="image/x-sony-arw"
   crs:Version="9.0"
   crs:ProcessVersion="6.7"
   crs:WhiteBalance="Custom"
   crs:AutoWhiteVersion="134348800"
   crs:Temperature="7800"
   crs:Tint="+7"
   crs:Saturation="0"
   crs:Sharpness="25"
   crs:LuminanceSmoothing="0"
   crs:ColorNoiseReduction="25"
   crs:VignetteAmount="0"
   crs:ShadowTint="0"
   crs:RedHue="0"
   crs:RedSaturation="0"
   crs:GreenHue="0"
   crs:GreenSaturation="0"
   crs:BlueHue="0"
   crs:BlueSaturation="0"
   crs:Vibrance="+20"
   crs:HueAdjustmentRed="0"
   crs:HueAdjustmentOrange="0"
   crs:HueAdjustmentYellow="0"
   crs:HueAdjustmentGreen="0"
   crs:HueAdjustmentAqua="0"
   crs:HueAdjustmentBlue="0"
   crs:HueAdjustmentPurple="0"
   crs:HueAdjustmentMagenta="0"
   crs:SaturationAdjustmentRed="0"
   crs:SaturationAdjustmentOrange="0"
   crs:SaturationAdjustmentYellow="0"
   crs:SaturationAdjustmentGreen="-24"
   crs:SaturationAdjustmentAqua="0"
   crs:SaturationAdjustmentBlue="0"
   crs:SaturationAdjustmentPurple="0"
   crs:SaturationAdjustmentMagenta="0"
   crs:LuminanceAdjustmentRed="0"
   crs:LuminanceAdjustmentOrange="0"
   crs:LuminanceAdjustmentYellow="0"
   crs:LuminanceAdjustmentGreen="0"
   crs:LuminanceAdjustmentAqua="0"
   crs:LuminanceAdjustmentBlue="0"
   crs:LuminanceAdjustmentPurple="0"
   crs:LuminanceAdjustmentMagenta="0"
   crs:SplitToningShadowHue="0"
   crs:SplitToningShadowSaturation="0"
   crs:SplitToningHighlightHue="0"
   crs:SplitToningHighlightSaturation="0"
   crs:SplitToningBalance="0"
   crs:ParametricShadows="0"
   crs:ParametricDarks="0"
   crs:ParametricLights="0"
   crs:ParametricHighlights="0"
   crs:ParametricShadowSplit="25"
   crs:ParametricMidtoneSplit="50"
   crs:ParametricHighlightSplit="75"
   crs:SharpenRadius="+1.0"
   crs:SharpenDetail="25"
   crs:SharpenEdgeMasking="0"
   crs:PostCropVignetteAmount="0"
   crs:GrainAmount="0"
   crs:ColorNoiseReductionDetail="50"
   crs:ColorNoiseReductionSmoothness="50"
   crs:LensProfileEnable="0"
   crs:LensManualDistortionAmount="0"
   crs:PerspectiveVertical="0"
   crs:PerspectiveHorizontal="0"
   crs:PerspectiveRotate="0.0"
   crs:PerspectiveScale="100"
   crs:PerspectiveAspect="0"
   crs:PerspectiveUpright="0"
   crs:AutoLateralCA="0"
   crs:Exposure2012="+0.85"
   crs:Contrast2012="+5"
   crs:Highlights2012="-79"
   crs:Shadows2012="+88"
   crs:Whites2012="+15"
   crs:Blacks2012="-45"
   crs:Clarity2012="0"
   crs:DefringePurpleAmount="0"
   crs:DefringePurpleHueLo="30"
   crs:DefringePurpleHueHi="70"
   crs:DefringeGreenAmount="0"
   crs:DefringeGreenHueLo="40"
   crs:DefringeGreenHueHi="60"
   crs:ConvertToGrayscale="False"
   crs:ToneCurveName="Medium Contrast"
   crs:ToneCurveName2012="Linear"
   crs:CameraProfile="Adobe Standard"
   crs:CameraProfileDigest="1788B570030FACFA9FE192B3FDFCB113"
   crs:LensProfileSetup="LensDefaults"
   crs:HasSettings="True"
   crs:AlreadyApplied="False"
   crs:RawFileName="DSC06805.ARW">
   <exif:ISOSpeedRatings>
    <rdf:Seq>
     <rdf:li>800</rdf:li>
    </rdf:Seq>
   </exif:ISOSpeedRatings>
   <exif:Flash
    exif:Fired="False"
    exif:Return="0"
    exif:Mode="2"
    exif:Function="False"
    exif:RedEyeMode="False"/>
   <xmpMM:History>
    <rdf:Seq>
     <rdf:li
      stEvt:action="saved"
      stEvt:instanceID="xmp.iid:ced8f1ca-7fd0-5245-be48-329193b682c7"
      stEvt:when="2016-08-28T17:23:13+02:00"
      stEvt:softwareAgent="Adobe Photoshop Lightroom 6.0 (Windows)"
      stEvt:changed="/metadata"/>
    </rdf:Seq>
   </xmpMM:History>
   <dc:subject>
    <rdf:Bag>
     <rdf:li>Ada</rdf:li>
     <rdf:li>Balcony</rdf:li>
     <rdf:li>Balcony1</rdf:li>
     <rdf:li>Poland</rdf:li>
     <rdf:li>Polska</rdf:li>
     <rdf:li>Portrait</rdf:li>
     <rdf:li>Waniliowa</rdf:li>
     <rdf:li>Wroclaw</rdf:li>
    </rdf:Bag>
   </dc:subject>
   <crs:ToneCurve>
    <rdf:Seq>
     <rdf:li>0, 0</rdf:li>
     <rdf:li>32, 22</rdf:li>
     <rdf:li>64, 56</rdf:li>
     <rdf:li>128, 128</rdf:li>
     <rdf:li>192, 196</rdf:li>
     <rdf:li>255, 255</rdf:li>
    </rdf:Seq>
   </crs:ToneCurve>
   <crs:ToneCurveRed>
    <rdf:Seq>
     <rdf:li>0, 0</rdf:li>
     <rdf:li>255, 255</rdf:li>
    </rdf:Seq>
   </crs:ToneCurveRed>
   <crs:ToneCurveGreen>
    <rdf:Seq>
     <rdf:li>0, 0</rdf:li>
     <rdf:li>255, 255</rdf:li>
    </rdf:Seq>
   </crs:ToneCurveGreen>
   <crs:ToneCurveBlue>
    <rdf:Seq>
     <rdf:li>0, 0</rdf:li>
     <rdf:li>255, 255</rdf:li>
    </rdf:Seq>
   </crs:ToneCurveBlue>
   <crs:ToneCurvePV2012>
    <rdf:Seq>
     <rdf:li>0, 0</rdf:li>
     <rdf:li>255, 255</rdf:li>
    </rdf:Seq>
   </crs:ToneCurvePV2012>
   <crs:ToneCurvePV2012Red>
    <rdf:Seq>
     <rdf:li>0, 0</rdf:li>
     <rdf:li>255, 255</rdf:li>
    </rdf:Seq>
   </crs:ToneCurvePV2012Red>
   <crs:ToneCurvePV2012Green>
    <rdf:Seq>
     <rdf:li>0, 0</rdf:li>
     <rdf:li>255, 255</rdf:li>
    </rdf:Seq>
   </crs:ToneCurvePV2012Green>
   <crs:ToneCurvePV2012Blue>
    <rdf:Seq>
     <rdf:li>0, 0</rdf:li>
     <rdf:li>255, 255</rdf:li>
    </rdf:Seq>
   </crs:ToneCurvePV2012Blue>
   <crs:RetouchAreas>
    <rdf:Seq>
     <rdf:li>
      <rdf:Description
       crs:SpotType="heal"
       crs:SourceState="sourceAutoComputed"
       crs:Method="gaussian"
       crs:HealVersion="+1"
       crs:SourceX="0.719000"
       crs:OffsetY="0.360500"
       crs:Opacity="1.000000"
       crs:Feather="0.070000"
       crs:Seed="+2">
      <crs:Masks>
       <rdf:Seq>
        <rdf:li
         crs:What="Mask/Ellipse"
         crs:MaskValue="1.000000"
         crs:X="0.718667"
         crs:Y="0.354000"
         crs:SizeX="0.001550"
         crs:SizeY="0.001550"
         crs:Alpha="0.000000"
         crs:CenterValue="1.000000"
         crs:PerimeterValue="0.000000"/>
       </rdf:Seq>
      </crs:Masks>
      </rdf:Description>
     </rdf:li>
     <rdf:li>
      <rdf:Description
       crs:SpotType="heal"
       crs:SourceState="sourceAutoComputed"
       crs:Method="gaussian"
       crs:HealVersion="+1"
       crs:SourceX="0.751833"
       crs:OffsetY="0.343750"
       crs:Opacity="1.000000"
       crs:Feather="0.070000"
       crs:Seed="+2">
      <crs:Masks>
       <rdf:Seq>
        <rdf:li
         crs:What="Mask/Ellipse"
         crs:MaskValue="1.000000"
         crs:X="0.749000"
         crs:Y="0.337500"
         crs:SizeX="0.001550"
         crs:SizeY="0.001550"
         crs:Alpha="0.000000"
         crs:CenterValue="1.000000"
         crs:PerimeterValue="0.000000"/>
       </rdf:Seq>
      </crs:Masks>
      </rdf:Description>
     </rdf:li>
    </rdf:Seq>
   </crs:RetouchAreas>
   <crs:RetouchInfo>
    <rdf:Seq>
     <rdf:li>centerX = 0.718667, centerY = 0.354000, radius = 0.001550, sourceState = sourceAutoComputed, sourceX = 0.719000, sourceY = 0.360500, spotType = heal</rdf:li>
     <rdf:li>centerX = 0.749000, centerY = 0.337500, radius = 0.001550, sourceState = sourceAutoComputed, sourceX = 0.751833, sourceY = 0.343750, spotType = heal</rdf:li>
    </rdf:Seq>
   </crs:RetouchInfo>
   <lr:hierarchicalSubject>
    <rdf:Bag>
     <rdf:li>Ada</rdf:li>
     <rdf:li>Balcony</rdf:li>
     <rdf:li>Balcony1</rdf:li>
     <rdf:li>Poland</rdf:li>
     <rdf:li>Polska</rdf:li>
     <rdf:li>Portrait</rdf:li>
     <rdf:li>Waniliowa</rdf:li>
     <rdf:li>Wroclaw</rdf:li>
    </rdf:Bag>
   </lr:hierarchicalSubject>
  </rdf:Description>
 </rdf:RDF>
</x:xmpmeta>
